X:16
T:16.  Guinivere With Scuba Gear
C:c 1984 Harry Bolick
R:Breakdown
O:United States
A:Hastings On Hudson, New York
M:4/4
L:1/8
Q:160
K:G
 |: "G6"  E>G (G/2E/2D) EG E2 |"G7"(Bd) (=fe)"D" d4|
"G" dg ed (=f<e) dB/2A/2 | (B/2A/2)(B/2d/2) "D" (B/2A/2)(F/2D/2) "G" G4:|
|: g/2a/2g/2e/2 g/2a/2g/2e/2 d B2 c/2B/2 | Ac BA "C" e2e2|
g/2a/2b/2a/2 ge "G" dB (B/2A/2)G |B d/2B/2 A/2"D"G/2F/2D/2 "G" G4:|
